packages/sources/icons/src/vitamix/smartphone-line.svg

<svg width="16" height="16" viewBox="0 0 16 16" fill="none" xmlns="http://www.w3.org/2000/svg">
<path fill-rule="evenodd" clip-rule="evenodd" d="M3.99999 1.33333H12C12.3682 1.33333 12.6667 1.63181 12.6667 1.99999V14C12.6667 14.3682 12.3682 14.6667 12 14.6667H3.99999C3.63181 14.6667 3.33333 14.3682 3.33333 14V1.99999C3.33333 1.63181 3.63181 1.33333 3.99999 1.33333ZM4.66666 2.66666V13.3333H11.3333V2.66666H4.66666ZM8.66666 12C8.66666 11.6318 8.36819 11.3333 8 11.3333C7.6318 11.3333 7.33333 11.6318 7.33333 12C7.33333 12.3682 7.6318 12.6667 8 12.6667C8.36819 12.6667 8.66666 12.3682 8.66666 12Z" fill="#001018"/>
</svg>

<svg width="16" height="16" fill="none" xmlns="http://www.w3.org/2000/svg"><path fill-rule="evenodd" clip-rule="evenodd" d="M4 1.333h8c.368 0 .667.299.667.667v12a.667.667 0 0 1-.667.667H4A.667.667 0 0 1 3.333 14V2c0-.368.299-.667.667-.667zm.667 1.334v10.666h6.666V2.667H4.667zm4 9.333a.667.667 0 1 0-1.334 0 .667.667 0 0 0 1.334 0z" fill="#001018"/></svg>
